www/assets/images/icons/bars-solid-full.svg

<?xml version="1.0" encoding="UTF-8"?>
<svg id="Layer_1" data-name="Layer 1" xmlns="http://www.w3.org/2000/svg" viewBox="0 0 640 640">
  <defs>
    <style>
      .cls-1 {
        fill: #e2e1df;
      }
    </style>
  </defs>
  <path class="cls-1" d="M96,160c0-17.7,14.3-32,32-32h384c17.7,0,32,14.3,32,32s-14.3,32-32,32H128c-17.7,0-32-14.3-32-32ZM96,320c0-17.7,14.3-32,32-32h384c17.7,0,32,14.3,32,32s-14.3,32-32,32H128c-17.7,0-32-14.3-32-32ZM544,480c0,17.7-14.3,32-32,32H128c-17.7,0-32-14.3-32-32s14.3-32,32-32h384c17.7,0,32,14.3,32,32Z"/>
</svg>

<svg xmlns="http://www.w3.org/2000/svg" viewBox="0 0 640 640"><!--!Font Awesome Free 7.1.0 by @fontawesome - https://fontawesome.com License - https://fontawesome.com/license/free Copyright 2025 Fonticons, Inc.--><path d="M96 160C96 142.3 110.3 128 128 128L512 128C529.7 128 544 142.3 544 160C544 177.7 529.7 192 512 192L128 192C110.3 192 96 177.7 96 160zM96 320C96 302.3 110.3 288 128 288L512 288C529.7 288 544 302.3 544 320C544 337.7 529.7 352 512 352L128 352C110.3 352 96 337.7 96 320zM544 480C544 497.7 529.7 512 512 512L128 512C110.3 512 96 497.7 96 480C96 462.3 110.3 448 128 448L512 448C529.7 448 544 462.3 544 480z"/></svg>
